images/6603860.svg

<?xml version="1.0" encoding="UTF-8"?>
<svg xmlns="http://www.w3.org/2000/svg" xmlns:xlink="http://www.w3.org/1999/xlink" width="300pt" height="300pt" viewBox="0 0 300 300" version="1.1">
<defs>
<g>
<symbol overflow="visible" id="glyph0-0">
<path style="stroke:none;" d="M 0.453125 1.59375 L 0.453125 -6.34375 L 4.953125 -6.34375 L 4.953125 1.59375 Z M 0.953125 1.09375 L 4.453125 1.09375 L 4.453125 -5.84375 L 0.953125 -5.84375 Z M 0.953125 1.09375 "/>
</symbol>
<symbol overflow="visible" id="glyph0-1">
<path style="stroke:none;" d="M 0.890625 -6.5625 L 2.078125 -6.5625 L 4.984375 -1.078125 L 4.984375 -6.5625 L 5.84375 -6.5625 L 5.84375 0 L 4.65625 0 L 1.75 -5.484375 L 1.75 0 L 0.890625 0 Z M 0.890625 -6.5625 "/>
</symbol>
<symbol overflow="visible" id="glyph0-2">
<path style="stroke:none;" d="M 0.890625 -6.5625 L 1.765625 -6.5625 L 1.765625 -3.875 L 5 -3.875 L 5 -6.5625 L 5.890625 -6.5625 L 5.890625 0 L 5 0 L 5 -3.125 L 1.765625 -3.125 L 1.765625 0 L 0.890625 0 Z M 0.890625 -6.5625 "/>
</symbol>
<symbol overflow="visible" id="glyph0-3">
<path style="stroke:none;" d="M 3.546875 -5.953125 C 2.898438 -5.953125 2.382812 -5.710938 2 -5.234375 C 1.625 -4.753906 1.4375 -4.101562 1.4375 -3.28125 C 1.4375 -2.445312 1.625 -1.789062 2 -1.3125 C 2.382812 -0.832031 2.898438 -0.59375 3.546875 -0.59375 C 4.191406 -0.59375 4.703125 -0.832031 5.078125 -1.3125 C 5.453125 -1.789062 5.640625 -2.445312 5.640625 -3.28125 C 5.640625 -4.101562 5.453125 -4.753906 5.078125 -5.234375 C 4.703125 -5.710938 4.191406 -5.953125 3.546875 -5.953125 Z M 3.546875 -6.6875 C 4.460938 -6.6875 5.195312 -6.375 5.75 -5.75 C 6.300781 -5.132812 6.578125 -4.3125 6.578125 -3.28125 C 6.578125 -2.238281 6.300781 -1.410156 5.75 -0.796875 C 5.195312 -0.179688 4.460938 0.125 3.546875 0.125 C 2.617188 0.125 1.878906 -0.179688 1.328125 -0.796875 C 0.773438 -1.410156 0.5 -2.238281 0.5 -3.28125 C 0.5 -4.3125 0.773438 -5.132812 1.328125 -5.75 C 1.878906 -6.375 2.617188 -6.6875 3.546875 -6.6875 Z M 3.546875 -6.6875 "/>
</symbol>
</g>
</defs>
<g id="surface48753">
<rect x="0" y="0" width="300" height="300" style="fill:rgb(100%,100%,100%);fill-opacity:1;stroke:none;"/>
<path style="fill:none;stroke-width:1.2;stroke-linecap:butt;stroke-linejoin:miter;stroke:rgb(0%,0%,0%);stroke-opacity:1;stroke-miterlimit:10;" d="M 35.25 156.546875 L 43.101562 159.167969 "/>
<path style="fill:none;stroke-width:1.2;stroke-linecap:butt;stroke-linejoin:miter;stroke:rgb(0%,0%,100%);stroke-opacity:1;stroke-miterlimit:10;" d="M 43.101562 159.167969 L 50.953125 161.789062 "/>
<path style="fill:none;stroke-width:1.2;stroke-linecap:butt;stroke-linejoin:miter;stroke:rgb(0%,0%,100%);stroke-opacity:1;stroke-miterlimit:10;" d="M 50.953125 161.789062 L 52.605469 169.898438 "/>
<path style="fill:none;stroke-width:1.2;stroke-linecap:butt;stroke-linejoin:miter;stroke:rgb(0%,0%,0%);stroke-opacity:1;stroke-miterlimit:10;" d="M 52.605469 169.898438 L 54.261719 178.007812 "/>
<path style="fill:none;stroke-width:1.2;stroke-linecap:butt;stroke-linejoin:miter;stroke:rgb(0%,0%,100%);stroke-opacity:1;stroke-miterlimit:10;" d="M 50.953125 161.789062 L 57.148438 156.300781 "/>
<path style="fill:none;stroke-width:1.2;stroke-linecap:butt;stroke-linejoin:miter;stroke:rgb(0%,0%,0%);stroke-opacity:1;stroke-miterlimit:10;" d="M 57.148438 156.300781 L 63.34375 150.8125 "/>
<path style=" stroke:none;fill-rule:nonzero;fill:rgb(100%,100%,100%);fill-opacity:1;" d="M 47.953125 156.289062 L 54.953125 156.289062 L 54.953125 167.289062 L 47.953125 167.289062 Z M 47.953125 156.289062 "/>
<g style="fill:rgb(0%,0%,100%);fill-opacity:1;">
  <use xlink:href="#glyph0-1" x="47.953125" y="164.952148"/>
</g>
<path style="fill:none;stroke-width:1.2;stroke-linecap:butt;stroke-linejoin:miter;stroke:rgb(0%,0%,0%);stroke-opacity:1;stroke-miterlimit:10;" d="M 63.34375 150.8125 L 79.046875 156.054688 "/>
<path style="fill:none;stroke-width:1.2;stroke-linecap:butt;stroke-linejoin:miter;stroke:rgb(0%,0%,0%);stroke-opacity:1;stroke-miterlimit:10;" d="M 79.046875 156.054688 L 91.4375 145.078125 "/>
<path style="fill:none;stroke-width:1.2;stroke-linecap:butt;stroke-linejoin:miter;stroke:rgb(0%,0%,0%);stroke-opacity:1;stroke-miterlimit:10;" d="M 91.4375 145.078125 L 89.84375 128.601562 "/>
<path style="fill:none;stroke-width:1.2;stroke-linecap:butt;stroke-linejoin:miter;stroke:rgb(0%,0%,0%);stroke-opacity:1;stroke-miterlimit:10;" d="M 95.15625 143.054688 L 93.878906 129.875 "/>
<path style="fill:none;stroke-width:1.2;stroke-linecap:butt;stroke-linejoin:miter;stroke:rgb(0%,0%,0%);stroke-opacity:1;stroke-miterlimit:10;" d="M 107.601562 148.652344 L 91.4375 145.078125 "/>
<path style="fill:none;stroke-width:1.2;stroke-linecap:butt;stroke-linejoin:miter;stroke:rgb(0%,0%,0%);stroke-opacity:1;stroke-miterlimit:10;" d="M 89.84375 128.601562 L 97.429688 125.296875 "/>
<path style="fill:none;stroke-width:1.2;stroke-linecap:butt;stroke-linejoin:miter;stroke:rgb(0%,0%,100%);stroke-opacity:1;stroke-miterlimit:10;" d="M 97.429688 125.296875 L 105.019531 121.992188 "/>
<path style="fill:none;stroke-width:1.2;stroke-linecap:butt;stroke-linejoin:miter;stroke:rgb(0%,0%,100%);stroke-opacity:1;stroke-miterlimit:10;" d="M 105.019531 121.992188 L 110.507812 128.1875 "/>
<path style="fill:none;stroke-width:1.2;stroke-linecap:butt;stroke-linejoin:miter;stroke:rgb(0%,0%,0%);stroke-opacity:1;stroke-miterlimit:10;" d="M 110.507812 128.1875 L 115.996094 134.382812 "/>
<path style=" stroke:none;fill-rule:nonzero;fill:rgb(100%,100%,100%);fill-opacity:1;" d="M 98.019531 116.492188 L 112.019531 116.492188 L 112.019531 127.492188 L 98.019531 127.492188 Z M 98.019531 116.492188 "/>
<g style="fill:rgb(0%,0%,100%);fill-opacity:1;">
  <use xlink:href="#glyph0-1" x="98.019531" y="125.155273"/>
  <use xlink:href="#glyph0-2" x="104.99707" y="125.155273"/>
</g>
<path style="fill:none;stroke-width:1.2;stroke-linecap:butt;stroke-linejoin:miter;stroke:rgb(0%,0%,0%);stroke-opacity:1;stroke-miterlimit:10;" d="M 115.996094 134.382812 L 107.601562 148.652344 "/>
<path style="fill:none;stroke-width:1.2;stroke-linecap:butt;stroke-linejoin:miter;stroke:rgb(0%,0%,0%);stroke-opacity:1;stroke-miterlimit:10;" d="M 118.515625 137.785156 L 111.800781 149.199219 "/>
<path style="fill:none;stroke-width:1.2;stroke-linecap:butt;stroke-linejoin:miter;stroke:rgb(0%,0%,0%);stroke-opacity:1;stroke-miterlimit:10;" d="M 132.550781 134.515625 L 115.996094 134.382812 "/>
<path style="fill:none;stroke-width:1.2;stroke-linecap:butt;stroke-linejoin:miter;stroke:rgb(0%,0%,0%);stroke-opacity:1;stroke-miterlimit:10;" d="M 107.601562 148.652344 L 115.761719 163.054688 "/>
<path style="fill:none;stroke-width:1.2;stroke-linecap:butt;stroke-linejoin:miter;stroke:rgb(0%,0%,0%);stroke-opacity:1;stroke-miterlimit:10;" d="M 115.761719 163.054688 L 132.316406 163.191406 "/>
<path style="fill:none;stroke-width:1.2;stroke-linecap:butt;stroke-linejoin:miter;stroke:rgb(0%,0%,0%);stroke-opacity:1;stroke-miterlimit:10;" d="M 117.449219 159.171875 L 130.695312 159.28125 "/>
<path style="fill:none;stroke-width:1.2;stroke-linecap:butt;stroke-linejoin:miter;stroke:rgb(0%,0%,0%);stroke-opacity:1;stroke-miterlimit:10;" d="M 132.316406 163.191406 L 140.710938 148.921875 "/>
<path style="fill:none;stroke-width:1.2;stroke-linecap:butt;stroke-linejoin:miter;stroke:rgb(0%,0%,0%);stroke-opacity:1;stroke-miterlimit:10;" d="M 132.316406 163.191406 L 140.476562 177.59375 "/>
<path style="fill:none;stroke-width:1.2;stroke-linecap:butt;stroke-linejoin:miter;stroke:rgb(0%,0%,0%);stroke-opacity:1;stroke-miterlimit:10;" d="M 140.710938 148.921875 L 132.550781 134.515625 "/>
<path style="fill:none;stroke-width:1.2;stroke-linecap:butt;stroke-linejoin:miter;stroke:rgb(0%,0%,0%);stroke-opacity:1;stroke-miterlimit:10;" d="M 136.507812 149.402344 L 129.976562 137.878906 "/>
<path style="fill:none;stroke-width:1.2;stroke-linecap:butt;stroke-linejoin:miter;stroke:rgb(0%,0%,0%);stroke-opacity:1;stroke-miterlimit:10;" d="M 140.476562 177.59375 L 157.03125 177.726562 "/>
<path style="fill:none;stroke-width:1.2;stroke-linecap:butt;stroke-linejoin:miter;stroke:rgb(0%,0%,0%);stroke-opacity:1;stroke-miterlimit:10;" d="M 142.101562 181.5 L 155.34375 181.609375 "/>
<path style="fill:none;stroke-width:1.2;stroke-linecap:butt;stroke-linejoin:miter;stroke:rgb(0%,0%,0%);stroke-opacity:1;stroke-miterlimit:10;" d="M 157.03125 177.726562 L 165.425781 163.457031 "/>
<path style="fill:none;stroke-width:1.2;stroke-linecap:butt;stroke-linejoin:miter;stroke:rgb(0%,0%,0%);stroke-opacity:1;stroke-miterlimit:10;" d="M 167.121094 162.5 L 163.039062 155.296875 "/>
<path style="fill:none;stroke-width:1.2;stroke-linecap:butt;stroke-linejoin:miter;stroke:rgb(100%,0%,0%);stroke-opacity:1;stroke-miterlimit:10;" d="M 163.039062 155.296875 L 158.960938 148.09375 "/>
<path style="fill:none;stroke-width:1.2;stroke-linecap:butt;stroke-linejoin:miter;stroke:rgb(0%,0%,0%);stroke-opacity:1;stroke-miterlimit:10;" d="M 163.730469 164.417969 L 159.652344 157.21875 "/>
<path style="fill:none;stroke-width:1.2;stroke-linecap:butt;stroke-linejoin:miter;stroke:rgb(100%,0%,0%);stroke-opacity:1;stroke-miterlimit:10;" d="M 159.652344 157.21875 L 155.570312 150.015625 "/>
<path style="fill:none;stroke-width:1.2;stroke-linecap:butt;stroke-linejoin:miter;stroke:rgb(0%,0%,0%);stroke-opacity:1;stroke-miterlimit:10;" d="M 165.425781 163.457031 L 173.703125 163.527344 "/>
<path style="fill:none;stroke-width:1.2;stroke-linecap:butt;stroke-linejoin:miter;stroke:rgb(0%,0%,100%);stroke-opacity:1;stroke-miterlimit:10;" d="M 173.703125 163.527344 L 181.980469 163.59375 "/>
<path style=" stroke:none;fill-rule:nonzero;fill:rgb(100%,100%,100%);fill-opacity:1;" d="M 149.265625 143.554688 L 157.265625 143.554688 L 157.265625 154.554688 L 149.265625 154.554688 Z M 149.265625 143.554688 "/>
<g style="fill:rgb(100%,0%,0%);fill-opacity:1;">
  <use xlink:href="#glyph0-3" x="149.265625" y="152.217773"/>
</g>
<path style="fill:none;stroke-width:1.2;stroke-linecap:butt;stroke-linejoin:miter;stroke:rgb(0%,0%,100%);stroke-opacity:1;stroke-miterlimit:10;" d="M 181.980469 163.59375 L 186.175781 156.457031 "/>
<path style="fill:none;stroke-width:1.2;stroke-linecap:butt;stroke-linejoin:miter;stroke:rgb(0%,0%,0%);stroke-opacity:1;stroke-miterlimit:10;" d="M 186.175781 156.457031 L 190.375 149.324219 "/>
<path style=" stroke:none;fill-rule:nonzero;fill:rgb(100%,100%,100%);fill-opacity:1;" d="M 174.980469 158.09375 L 188.980469 158.09375 L 188.980469 169.09375 L 174.980469 169.09375 Z M 174.980469 158.09375 "/>
<g style="fill:rgb(0%,0%,100%);fill-opacity:1;">
  <use xlink:href="#glyph0-1" x="174.980469" y="166.756836"/>
  <use xlink:href="#glyph0-2" x="181.958008" y="166.756836"/>
</g>
<path style="fill:none;stroke-width:1.2;stroke-linecap:butt;stroke-linejoin:miter;stroke:rgb(0%,0%,0%);stroke-opacity:1;stroke-miterlimit:10;" d="M 190.375 149.324219 L 206.925781 149.457031 "/>
<path style="fill:none;stroke-width:1.2;stroke-linecap:butt;stroke-linejoin:miter;stroke:rgb(0%,0%,0%);stroke-opacity:1;stroke-miterlimit:10;" d="M 206.925781 149.457031 L 215.085938 163.863281 "/>
<path style="fill:none;stroke-width:1.2;stroke-linecap:butt;stroke-linejoin:miter;stroke:rgb(0%,0%,0%);stroke-opacity:1;stroke-miterlimit:10;" d="M 211.132812 148.980469 L 217.660156 160.5 "/>
<path style="fill:none;stroke-width:1.2;stroke-linecap:butt;stroke-linejoin:miter;stroke:rgb(0%,0%,0%);stroke-opacity:1;stroke-miterlimit:10;" d="M 215.320312 135.191406 L 206.925781 149.457031 "/>
<path style="fill:none;stroke-width:1.2;stroke-linecap:butt;stroke-linejoin:miter;stroke:rgb(0%,0%,0%);stroke-opacity:1;stroke-miterlimit:10;" d="M 215.085938 163.863281 L 231.640625 163.996094 "/>
<path style="fill:none;stroke-width:1.2;stroke-linecap:butt;stroke-linejoin:miter;stroke:rgb(0%,0%,0%);stroke-opacity:1;stroke-miterlimit:10;" d="M 231.640625 163.996094 L 240.035156 149.726562 "/>
<path style="fill:none;stroke-width:1.2;stroke-linecap:butt;stroke-linejoin:miter;stroke:rgb(0%,0%,0%);stroke-opacity:1;stroke-miterlimit:10;" d="M 229.125 160.59375 L 235.839844 149.179688 "/>
<path style="fill:none;stroke-width:1.2;stroke-linecap:butt;stroke-linejoin:miter;stroke:rgb(0%,0%,0%);stroke-opacity:1;stroke-miterlimit:10;" d="M 240.035156 149.726562 L 231.875 135.324219 "/>
<path style="fill:none;stroke-width:1.2;stroke-linecap:butt;stroke-linejoin:miter;stroke:rgb(0%,0%,0%);stroke-opacity:1;stroke-miterlimit:10;" d="M 240.035156 149.726562 L 248.3125 149.792969 "/>
<path style="fill:none;stroke-width:1.2;stroke-linecap:butt;stroke-linejoin:miter;stroke:rgb(100%,0%,0%);stroke-opacity:1;stroke-miterlimit:10;" d="M 248.3125 149.792969 L 256.589844 149.863281 "/>
<path style="fill:none;stroke-width:1.2;stroke-linecap:butt;stroke-linejoin:miter;stroke:rgb(0%,0%,0%);stroke-opacity:1;stroke-miterlimit:10;" d="M 231.875 135.324219 L 215.320312 135.191406 "/>
<path style="fill:none;stroke-width:1.2;stroke-linecap:butt;stroke-linejoin:miter;stroke:rgb(0%,0%,0%);stroke-opacity:1;stroke-miterlimit:10;" d="M 230.1875 139.207031 L 216.945312 139.097656 "/>
<path style="fill:none;stroke-width:1.2;stroke-linecap:butt;stroke-linejoin:miter;stroke:rgb(100%,0%,0%);stroke-opacity:1;stroke-miterlimit:10;" d="M 256.589844 149.863281 L 260.667969 157.0625 "/>
<path style="fill:none;stroke-width:1.2;stroke-linecap:butt;stroke-linejoin:miter;stroke:rgb(0%,0%,0%);stroke-opacity:1;stroke-miterlimit:10;" d="M 260.667969 157.0625 L 264.75 164.265625 "/>
<path style=" stroke:none;fill-rule:nonzero;fill:rgb(100%,100%,100%);fill-opacity:1;" d="M 252.589844 144.363281 L 260.589844 144.363281 L 260.589844 155.363281 L 252.589844 155.363281 Z M 252.589844 144.363281 "/>
<g style="fill:rgb(100%,0%,0%);fill-opacity:1;">
  <use xlink:href="#glyph0-3" x="252.589844" y="153.026367"/>
</g>
</g>
</svg>

<svg xmlns="http://www.w3.org/2000/svg" xmlns:xlink="http://www.w3.org/1999/xlink" width="300pt" height="300pt" viewBox="0 0 300 300"><defs><symbol overflow="visible"><path d="M.453 1.594v-7.938h4.5v7.938zm.5-.5h3.5v-6.938h-3.5zm0 0"/></symbol><symbol overflow="visible" id="a"><path d="M.89-6.563H2.08l2.906 5.485v-5.484h.86V0H4.656L1.75-5.484V0H.89zm0 0"/></symbol><symbol overflow="visible" id="b"><path d="M.89-6.563h.876v2.688H5v-2.688h.89V0H5v-3.125H1.766V0H.89zm0 0"/></symbol><symbol overflow="visible" id="c"><path d="M3.547-5.953c-.65 0-1.164.242-1.547.72-.375.48-.563 1.13-.563 1.952 0 .835.188 1.49.563 1.967.383.48.898.72 1.547.72.644 0 1.156-.24 1.53-.72.376-.476.564-1.132.564-1.968 0-.822-.187-1.474-.562-1.954-.375-.477-.887-.72-1.53-.72zm0-.734c.914 0 1.648.312 2.203.937.55.617.828 1.438.828 2.47 0 1.042-.277 1.87-.828 2.483-.555.617-1.29.922-2.203.922-.93 0-1.668-.305-2.22-.922C.774-1.41.5-2.237.5-3.28c0-1.033.273-1.853.828-2.47.55-.625 1.29-.938 2.22-.938zm0 0"/></symbol></defs><g><path fill="#fff" d="M0 0h300v300H0z"/><path d="M35.25 156.547l7.852 2.62" stroke-width="1.2" stroke="#000" stroke-miterlimit="10" fill="none"/><path d="M43.102 159.168l7.85 2.62M50.953 161.79l1.652 8.108" stroke-width="1.2" stroke="#00f" stroke-miterlimit="10" fill="none"/><path d="M52.605 169.898l1.657 8.11" stroke-width="1.2" stroke="#000" stroke-miterlimit="10" fill="none"/><path d="M50.953 161.79l6.195-5.49" stroke-width="1.2" stroke="#00f" stroke-miterlimit="10" fill="none"/><path d="M57.148 156.3l6.196-5.488" stroke-width="1.2" stroke="#000" stroke-miterlimit="10" fill="none"/><path d="M47.953 156.29h7v11h-7zm0 0" fill="#fff"/><use xlink:href="#a" x="47.953" y="164.952" fill="#00f"/><path d="M63.344 150.813l15.703 5.242M79.047 156.055l12.39-10.977M91.438 145.078l-1.594-16.476M95.156 143.055l-1.277-13.18M107.602 148.652l-16.165-3.574M89.844 128.602l7.586-3.305" stroke-width="1.2" stroke="#000" stroke-miterlimit="10" fill="none"/><path d="M97.43 125.297l7.59-3.305M105.02 121.992l5.488 6.195" stroke-width="1.2" stroke="#00f" stroke-miterlimit="10" fill="none"/><path d="M110.508 128.188l5.488 6.195" stroke-width="1.2" stroke="#000" stroke-miterlimit="10" fill="none"/><path d="M98.02 116.492h14v11h-14zm0 0" fill="#fff"/><g fill="#00f"><use xlink:href="#a" x="98.02" y="125.155"/><use xlink:href="#b" x="104.997" y="125.155"/></g><path d="M115.996 134.383l-8.394 14.27M118.516 137.785L111.8 149.2M132.55 134.516l-16.554-.133M107.602 148.652l8.16 14.403M115.762 163.055l16.554.136M117.45 159.172l13.245.11M132.316 163.19l8.395-14.268M132.316 163.19l8.16 14.404M140.71 148.922l-8.16-14.406M136.508 149.402l-6.53-11.523M140.477 177.594l16.554.133M142.102 181.5l13.242.11M157.03 177.727l8.396-14.27M167.12 162.5l-4.08-7.203" stroke-width="1.2" stroke="#000" stroke-miterlimit="10" fill="none"/><path d="M163.04 155.297l-4.08-7.203" stroke-width="1.2" stroke="#f00" stroke-miterlimit="10" fill="none"/><path d="M163.73 164.418l-4.078-7.2" stroke-width="1.2" stroke="#000" stroke-miterlimit="10" fill="none"/><path d="M159.652 157.22l-4.082-7.204" stroke-width="1.2" stroke="#f00" stroke-miterlimit="10" fill="none"/><path d="M165.426 163.457l8.277.07" stroke-width="1.2" stroke="#000" stroke-miterlimit="10" fill="none"/><path d="M173.703 163.527l8.277.067" stroke-width="1.2" stroke="#00f" stroke-miterlimit="10" fill="none"/><path d="M149.266 143.555h8v11h-8zm0 0" fill="#fff"/><use xlink:href="#c" x="149.266" y="152.218" fill="#f00"/><path d="M181.98 163.594l4.196-7.137" stroke-width="1.2" stroke="#00f" stroke-miterlimit="10" fill="none"/><path d="M186.176 156.457l4.2-7.133" stroke-width="1.2" stroke="#000" stroke-miterlimit="10" fill="none"/><path d="M174.98 158.094h14v11h-14zm0 0" fill="#fff"/><g fill="#00f"><use xlink:href="#a" x="174.98" y="166.757"/><use xlink:href="#b" x="181.958" y="166.757"/></g><path d="M190.375 149.324l16.55.133M206.926 149.457l8.16 14.406M211.133 148.98l6.527 11.52M215.32 135.19l-8.394 14.267M215.086 163.863l16.555.133M231.64 163.996l8.395-14.27M229.125 160.594l6.715-11.414M240.035 149.727l-8.16-14.403M240.035 149.727l8.278.066" stroke-width="1.2" stroke="#000" stroke-miterlimit="10" fill="none"/><path d="M248.313 149.793l8.277.07" stroke-width="1.2" stroke="#f00" stroke-miterlimit="10" fill="none"/><path d="M231.875 135.324l-16.555-.133M230.188 139.207l-13.243-.11" stroke-width="1.2" stroke="#000" stroke-miterlimit="10" fill="none"/><path d="M256.59 149.863l4.078 7.2" stroke-width="1.2" stroke="#f00" stroke-miterlimit="10" fill="none"/><path d="M260.668 157.063l4.082 7.203" stroke-width="1.2" stroke="#000" stroke-miterlimit="10" fill="none"/><path d="M252.59 144.363h8v11h-8zm0 0" fill="#fff"/><use xlink:href="#c" x="252.59" y="153.026" fill="#f00"/></g></svg>
